X:136
T:North Of 7 Reel
R:reel
C:Bruce Osborne - Dec. 2002
Z:abc by bosborne@kos.net
M:2/4
L:1/8
K:G
D/F/|GG/F/ G/D/B,/D/|GG/B/ d/B/G/B/|AA/B/ c/A/F/A/|e/d/d/c/ BD/F/|\
GG/F/ G/D/B,/D/|GG/B/ d/B/G/B/|AA/B/ c/A/F/A/|G/B/A/F/ G:|
|:B/c/|dd/^c/ d/B/G/B/|e/d/e/f/ g/a/g/e/|dd/^c/ d/B/G/B/|A/G/A/B/ AB/c/|\
dd/^c/ d/B/G/B/|e/d/e/f/ g/a/g/e/|d/B/G/B/ c/A/F/A/|G/B/A/F/ G:|
